korla/status/symbolic/weather-snow-symbolic.svg

<svg style="clip-rule:evenodd;fill-rule:evenodd;stroke-linejoin:round;stroke-miterlimit:2" version="1.1" viewBox="0 0 16 16" xmlns="http://www.w3.org/2000/svg">
 <g transform="matrix(1.28038,0,0,1.28038,-1.25814,-2.2698)">
  <path d="m3.856 3.922c0.637-1.053 1.792-1.758 3.112-1.758 1.702 0 3.133 1.174 3.526 2.756 0.18-0.044 0.369-0.066 0.563-0.066 1.337 0 2.422 1.085 2.422 2.421 0 1.235-0.926 2.256-2.121 2.404h-1e-3c-0.098 0.012-0.198 0.018-0.3 0.018s-0.202-6e-3 -0.3-0.018h-6.896c-1.589 0-2.878-1.29-2.878-2.879 0-1.587 1.287-2.875 2.873-2.878z" style="fill-opacity:.5;fill:rgb(223,223,223)"/>
 </g>
 <g transform="translate(.476427 -1.48883)">
  <path d="m5 14c0 1.097-0.903 2-2 2s-2-0.903-2-2 0.903-2 2-2 2 0.903 2 2z" style="fill-rule:nonzero;fill:rgb(223,223,223)"/>
 </g>
 <g transform="translate(3.55271e-15 -.853598)">
  <path d="m10 12c0 1.097-0.903 2-2 2s-2-0.903-2-2 0.903-2 2-2 2 0.903 2 2z" style="fill-rule:nonzero;fill:rgb(223,223,223)"/>
 </g>
 <g transform="translate(-.35732 -.35732)">
  <path d="m15 14c0 1.097-0.903 2-2 2s-2-0.903-2-2 0.903-2 2-2 2 0.903 2 2z" style="fill-rule:nonzero;fill:rgb(223,223,223)"/>
 </g>
</svg>

<svg xmlns="http://www.w3.org/2000/svg" width="16" height="16" version="1.1">
 <path style="fill:#dfdfdf" d="M 8 0 C 5.93 0 4.1702 1.2705 3.4102 3.0605 C 1.4802 3.3505 0 4.99 0 7 C 0 9.21 1.79 11 4 11 L 5.1758 11 A 3 3 0 0 1 8 9 A 3 3 0 0 1 10.826 11 L 12.5 11 C 14.43 11 16 9.43 16 7.5 C 16 5.7 14.65 4.2293 12.91 4.0293 C 12.45 1.7393 10.43 -5.9212e-16 8 0 z"/>
 <path style="fill:#dfdfdf" d="M 5,14 A 2,2 0 0 1 3,16 2,2 0 0 1 1,14 2,2 0 0 1 3,12 2,2 0 0 1 5,14 Z"/>
 <path style="fill:#dfdfdf" d="M 10,12 A 2,2 0 0 1 8,14 2,2 0 0 1 6,12 2,2 0 0 1 8,10 2,2 0 0 1 10,12 Z"/>
 <path style="fill:#dfdfdf" d="M 15,14 A 2,2 0 0 1 13,16 2,2 0 0 1 11,14 2,2 0 0 1 13,12 2,2 0 0 1 15,14 Z"/>
</svg>
